src/ui/asset/opened_eye_24.svg

<svg width="24" height="24" viewBox="0 0 24 24" fill="none" xmlns="http://www.w3.org/2000/svg">
<path d="M12 6.36377C8.36364 6.36377 5.25818 8.62559 4 11.8183C5.25818 15.011 8.36364 17.2729 12 17.2729C15.6364 17.2729 18.7418 15.011 20 11.8183C18.7418 8.62559 15.6364 6.36377 12 6.36377ZM12 15.4547C9.99273 15.4547 8.36364 13.8256 8.36364 11.8183C8.36364 9.81104 9.99273 8.18195 12 8.18195C14.0073 8.18195 15.6364 9.81104 15.6364 11.8183C15.6364 13.8256 14.0073 15.4547 12 15.4547ZM12 9.6365C10.7927 9.6365 9.81818 10.611 9.81818 11.8183C9.81818 13.0256 10.7927 14.0001 12 14.0001C13.2073 14.0001 14.1818 13.0256 14.1818 11.8183C14.1818 10.611 13.2073 9.6365 12 9.6365Z" fill="currentColor"/>
</svg>

<svg width="24" height="24" fill="none" xmlns="http://www.w3.org/2000/svg"><path d="M12 6.364c-3.636 0-6.742 2.262-8 5.454 1.258 3.193 4.364 5.455 8 5.455s6.742-2.262 8-5.455c-1.258-3.192-4.364-5.454-8-5.454zm0 9.09a3.638 3.638 0 01-3.636-3.636A3.638 3.638 0 0112 8.182a3.638 3.638 0 013.636 3.636A3.638 3.638 0 0112 15.455zm0-5.818a2.179 2.179 0 00-2.182 2.182C9.818 13.026 10.793 14 12 14a2.179 2.179 0 002.182-2.182A2.179 2.179 0 0012 9.637z" fill="currentColor"/></svg>
